images/cards-View.svg

<svg width="48" height="48" viewBox="0 0 48 48" fill="none" xmlns="http://www.w3.org/2000/svg">
<path d="M20 17H16V23H20V17Z" fill="black"/>
<path d="M32 17H28V23H32V17Z" fill="black"/>
<path d="M26 17H22V23H26V17Z" fill="black"/>
<path d="M20 25H16V31H20V25Z" fill="black"/>
<path d="M32 25H28V31H32V25Z" fill="black"/>
<path d="M26 25H22V31H26V25Z" fill="black"/>
<path d="M4 2H44V-2H4V2ZM46 4V44H50V4H46ZM44 46H4V50H44V46ZM2 44V4H-2V44H2ZM4 46C2.89543 46 2 45.1046 2 44H-2C-2 47.3137 0.68629 50 4 50V46ZM46 44C46 45.1046 45.1046 46 44 46V50C47.3137 50 50 47.3137 50 44H46ZM44 2C45.1046 2 46 2.89543 46 4H50C50 0.686292 47.3137 -2 44 -2V2ZM4 -2C0.686292 -2 -2 0.68629 -2 4H2C2 2.89543 2.89543 2 4 2V-2Z" fill="black"/>
</svg>

<svg width="48" height="48" fill="none" xmlns="http://www.w3.org/2000/svg"><path d="M20 17h-4v6h4v-6ZM32 17h-4v6h4v-6ZM26 17h-4v6h4v-6ZM20 25h-4v6h4v-6ZM32 25h-4v6h4v-6ZM26 25h-4v6h4v-6ZM4 2h40v-4H4v4Zm42 2v40h4V4h-4Zm-2 42H4v4h40v-4ZM2 44V4h-4v40h4Zm2 2a2 2 0 0 1-2-2h-4a6 6 0 0 0 6 6v-4Zm42-2a2 2 0 0 1-2 2v4a6 6 0 0 0 6-6h-4ZM44 2a2 2 0 0 1 2 2h4a6 6 0 0 0-6-6v4ZM4-2a6 6 0 0 0-6 6h4a2 2 0 0 1 2-2v-4Z" fill="#000"/></svg>
